X: 6
T: The Cuil Aodha
R: jig
M: 6/8
L: 1/8
K: Gmaj
gfd cAd|~G3 B2c|ded cAG|
FAD DEF|~G3 GAB|~A3 fga|
gfd cAF| ~G3 GBd:|
g2g gfg|ade f2a|gfd cAd|
cAG FGA|d2g gfg|ade fga|
gfd cAF|~G3 GBd|


Tune 825	Setting 28467

